Papirus/16x16/apps/klystrack.svg

<svg xmlns="http://www.w3.org/2000/svg" width="16" height="16" version="1">
 <path style="fill:#737373" d="m13.804351 13.676815 0.195649-0.58213v-10.621001c0-0.8164211-0.657263-1.4736842-1.473684-1.4736842h-11.052632c-0.81642105 0-1.4736842 0.6572631-1.4736842 1.4736842v10.605951l0.1774357 0.446681c0.3013997 0.75875 0.6754759 1.202786 1.491897 1.202786h10.586085c0.816421 0 1.288838-0.278405 1.548933-1.052287z"/>
 <path style="fill:#ffc832" d="m12 7h-10c0-2.7614237 2.238576-4.9999997 4.9999997-4.9999997s5.0000003 2.238576 5.0000003 4.9999997z"/>
 <path style="fill:#f3597e" d="M 5,3.9996923 H 5.2307691 L 8,7 H 5.6923077 Z"/>
 <path style="fill:#f3597e" d="m11.436823 8.0000049c-1.056222 0-2.3992151 0.34924-2.436823 1.9595402 0.013243 1.3390019 0.6422186 2.2563189 1.358719 2.0630299 0.845259-0.446861 0.825143 0.317146 0.857195 0.580784 0.165915 0.532339 0.488124 0.430563 0.985987 0.391887h0.02985v0.0025h0.4367v-0.0016l0.129646-8.34e-4c0.497865 0.03868 0.820924 0.140453 0.98684-0.391887 0.03205-0.263638 0.01105-1.027644 0.856342-0.580784 0.716501 0.193289 1.345473-0.724028 1.358719-2.0630296-0.0376-1.6102616-1.380596-1.9595182-2.436819-1.9595182h-1.331424z"/>
 <path style="fill:#e4e4e4" d="M 2.9703947,11 C 1.8419443,11 0,11.684516 0,13.214021 v 0.312295 C 0,14.342737 0.65726315,15 1.4736842,15 H 12.526316 C 13.342737,15 14,14.342737 14,13.526316 V 12.789474 C 14,12.789474 14,14 11.421053,14 8.3951394,14 5.8945758,11 2.9703947,11 Z"/>
 <path style="fill:#3f3f3f" d="m4 11.121094v3.878906h0.5v-3.724609c-0.1664325-0.052283-0.3315777-0.116863-0.5-0.154297zm-2.5 0.193359c-0.1746984 0.073918-0.3412192 0.164344-0.5 0.265625v3.335938c0.1492323 0.050596 0.3078526 0.083984 0.4746094 0.083984h0.0253906v-3.685547zm5.5 1.101563v2.583984h0.5v-2.318359c-0.1662399-0.090264-0.3342108-0.174873-0.5-0.265625zm6.5 1.107422c-0.129825 0.091037-0.291135 0.176019-0.5 0.25v1.142578c0.187286-0.063499 0.355391-0.162902 0.5-0.291016v-1.101562zm-3.5 0.25v1.226562h0.5v-1.095703c-0.16871-0.032024-0.333947-0.084174-0.5-0.130859z"/>
</svg>

<svg xmlns="http://www.w3.org/2000/svg" width="16" height="16" version="1">
 <path style="fill:#737373" d="M 13.804,13.677 14,13.095 V 2.4737 C 14,1.6573 13.343,1 12.526,1 H 1.4737 C 0.65726,1 0,1.6573 0,2.4737 V 13.08 L 0.17744,13.526 C 0.47884,14.285 0.85291,14.729 1.6693,14.729 H 12.255 C 13.072,14.729 13.544,14.451 13.804,13.677 Z"/>
 <path style="fill:#ffc832" d="M 12,7 H 2 C 2,4.2386 4.2386,2 7,2 9.7614,2 12,4.2386 12,7 Z"/>
 <path style="fill:#f3597e" d="M 5,3.9997 H 5.2308 L 8,7 H 5.6923 Z"/>
 <path style="fill:#f3597e" d="M 11.437,8 C 10.381,8 9.0376,8.3492 9,9.9595 9.0132,11.299 9.6422,12.216 10.359,12.023 11.204,11.576 11.184,12.34 11.216,12.603 11.382,13.136 11.704,13.034 12.202,12.995 H 12.232 V 12.998 H 12.668 V 12.996 L 12.798,12.995 C 13.296,13.034 13.619,13.136 13.785,12.603 13.817,12.34 13.796,11.576 14.641,12.023 15.358,12.216 15.987,11.299 16,9.9596 15.962,8.3493 14.619,8.0001 13.563,8.0001 H 12.232 Z"/>
 <path style="fill:#e4e4e4" d="M 2.9704,11 C 1.8419,11 0,11.685 0,13.214 V 13.526 C 0,14.343 0.65726,15 1.4737,15 H 12.526 C 13.343,15 14,14.343 14,13.526 V 12.789 C 14,12.789 14,14 11.421,14 8.3951,14 5.8946,11 2.9704,11 Z"/>
 <path style="fill:#3f3f3f" d="M 4,11.121 V 15 H 4.5 V 11.275 C 4.3336,11.223 4.1684,11.159 4,11.121 Z M 1.5,11.314 C 1.3253,11.388 1.1588,11.479 1,11.58 V 14.916 C 1.1492,14.967 1.3079,15 1.4746,15 H 1.5 Z M 7,12.416 V 15 H 7.5 V 12.682 C 7.3338,12.591 7.1658,12.507 7,12.416 Z M 13.5,13.523 C 13.37,13.614 13.209,13.699 13,13.773 V 14.916 C 13.187,14.853 13.355,14.753 13.5,14.625 Z M 10,13.773 V 15 H 10.5 V 13.904 C 10.331,13.872 10.166,13.82 10,13.773 Z"/>
</svg>
